X: 21271
T: WHITE LADY SETT (tune 4)
C:
%R: hornpipe, reel
B: Elias Howe "The Musician's Companion" 1843 p.127 #1
S: http://imslp.org/wiki/The_Musician's_Companion_(Howe,_Elias)
Z: 2015 John Chambers <jc:trillian.mit.edu>
N: Dropped extra bar line in the middle of bar 19.
M: 2/4
L: 1/16
K: D
% - - - - - - - - - - - - - - - - - - - - - - - - - - - - -
V: 1 name="4"
A2 |\
(3(def) A2 (3(def) A2 | d>cd>e f2d2 | e2fg c2de | e>dc>d A2Bc |\
(3(def) A2 (3(def) A2 | d>cd>e f2g>f | (3(efg) e>d (3(cde) d>c | d2f2d2 H|]
F>G |\
A2B>c d2e>f | g2e>c A2d>f | a2f>d a2f>d | c2e2 A2F>G |\
A2B>c d2e>f | d3G c2d>e | a2g>e a2f>d | e4 "^D.C."z2 |]
A>c |\
e4 b3a | ad'f2 fad2 | egce A2Bc | dcdf a2gf |\
e4 b3a | ad'f2 f2ad | egce A2Bc | d4 "^D.C."z2 |]
% - - - - - - - - - - Dance description - - - - - - - - - -
%%begintext align
%% First couple lead to the right,
%% and balance,
%% swing four hands round,
%% lead to the next couple,
%% balance,
%% six hands round,
%% others the same.
%%endtext
% - - - - - - - - - - - - - - - - - - - - - - - - - - - - -
%%sep 1 1 300

%%sep 1 1 500

